cfmoto/public/img/questions.svg

<svg width="88" height="72" viewBox="0 0 88 72" fill="none" xmlns="http://www.w3.org/2000/svg">
<path d="M8.74996 36C4.44163 36 0.916626 32.475 0.916626 28.1667V8.58333C0.916626 4.275 4.44163 0.75 8.74996 0.75H40.0833C44.3916 0.75 47.9166 4.275 47.9166 8.58333V28.1667C47.9166 32.475 44.3916 36 40.0833 36H32.25V47.75L20.5 36H8.74996ZM79.25 59.5C83.5583 59.5 87.0833 55.975 87.0833 51.6667V32.0833C87.0833 27.775 83.5583 24.25 79.25 24.25H55.75V28.1667C55.75 36.7833 48.7 43.8333 40.0833 43.8333V51.6667C40.0833 55.975 43.6083 59.5 47.9166 59.5H55.75V71.25L67.5 59.5H79.25Z" fill="#121214"/>
</svg>

<svg width="88" height="72" fill="none" xmlns="http://www.w3.org/2000/svg"><path d="M8.75 36C4.442 36 .917 32.475.917 28.167V8.583C.917 4.275 4.442.75 8.75.75h31.333c4.309 0 7.834 3.525 7.834 7.833v19.584c0 4.308-3.525 7.833-7.834 7.833H32.25v11.75L20.5 36H8.75zm70.5 23.5c4.308 0 7.833-3.525 7.833-7.833V32.083c0-4.308-3.525-7.833-7.833-7.833h-23.5v3.917c0 8.616-7.05 15.666-15.667 15.666v7.834c0 4.308 3.525 7.833 7.834 7.833h7.833v11.75L67.5 59.5h11.75z" fill="#121214"/></svg>
